X: 042095
T: Donohue's Flat
C: Joe Liddy
Z: BB
S: "The Leitrim Fiddler" (Dublin 1981)
N: Uses dotted rhythm
L: 1/8
M: 4/4
R: hornpipe
Q: 1/4 = 160
K: G
dc | BGBd gdBg | (3cBA BG DFAc | BGBd ecef | (3agf ge d2 (3dcd |
BGBd gdBg | (3cBA BG DFAc | (3Bcd fd cADF | AGGF G2 :|
dc | (3BAG Bd g2 bg | agbg afdc | (3BAG Bd ecfg | (3agf ge d2 c2 |
BGBd g2 ef | (3gab af gfed | Bdfd cADF | AG (3GGF G2 dc |
BGBd g2 bg | agbg afdc | (3BAG AB cdfg | (3aba (3gfe d2 (3DEF |
GABc defg | bgag fa d2 | (3Bcd fd cAFD | GD (3EDB, G,4 ||
